svgs/thin/8.svg

<svg xmlns="http://www.w3.org/2000/svg" viewBox="0 0 320 512"><!--! Font Awesome Pro 6.1.1 by @fontawesome - https://fontawesome.com License - https://fontawesome.com/license (Commercial License) Copyright 2022 Fonticons, Inc. --><path d="M231.2 251.6C269.4 232.6 296 193.5 296 148C296 84.03 243.1 32 180 32h-40C76.03 32 24 84.03 24 148c0 45.5 26.57 84.57 64.79 103.6C37.97 263.9 0 309.4 0 364C0 427.1 52.03 480 116 480h88C267.1 480 320 427.1 320 364C320 309.4 282 263.9 231.2 251.6zM40 148C40 92.88 84.88 48 140 48h40c55.13 0 100 44.88 100 100S235.1 248 180 248h-40C84.88 248 40 203.1 40 148zM204 464h-88c-55.13 0-100-44.88-100-100S60.88 264 116 264h88c55.13 0 100 44.88 100 100S259.1 464 204 464z"/></svg>

<svg xmlns="http://www.w3.org/2000/svg" viewBox="0 0 320 512"><!--! Font Awesome Pro 6.4.2 by @fontawesome - https://fontawesome.com License - https://fontawesome.com/license (Commercial License) Copyright 2023 Fonticons, Inc. --><path d="M296 148c0-64.1-51.9-116-116-116H140C75.9 32 24 83.9 24 148c0 45.2 25.9 84.4 63.6 103.5C37.3 264.2 0 309.7 0 364c0 64.1 51.9 116 116 116h88c64.1 0 116-51.9 116-116c0-54.3-37.3-99.8-87.6-112.5C270.1 232.4 296 193.2 296 148zM180.1 264H204c55.2 0 100 44.8 100 100s-44.8 100-100 100H116C60.8 464 16 419.2 16 364s44.8-100 100-100h23.9c0 0 0 0 .1 0h40c0 0 0 0 .1 0zm0-16c0 0 0 0-.1 0H140c0 0 0 0-.1 0C84.7 248 40 203.2 40 148C40 92.8 84.8 48 140 48l40 0c55.2 0 100 44.8 100 100c0 55.2-44.7 100-99.9 100z"/></svg>
